!!!!SEGMENT: pl-kk--kk-i-482--004_zieleniewicz-mathias--msza-isza-benedictus.krn
!!!cenid: 17xx:1912
!!!COM: Zieleniewicz, Mathias
!!!COM-rismID: pe50045913
!!!CDT: <1724->1763
!!!CNT: Polish
!!!OPR: Msza Isza
!!!OTL: Benedictus
!!!OMV: 004
!!!PDT: 1724
!!!AGN: Sacred; Mass
!!!SMS-siglum: PL-Kk
!!!SMS-shelfmark: Kk.I.482
!!!SMS-shelfwork: 001-004 M
!!!SMS-variant: Soprano. PL-Kk KK.I.482:0023; Alto. PL-Kk KK.I.482:0018-0019; Tenore. PL-Kk KK.I.482:0025; Basso. PL-Kk KK.I.482:0029-0030
!!!SMS-altvar: [Partytura] PL-Kk KK.I.482:0009-0010; Soprano PL-Kk KK.I.482:0035-0036; Alto PL-Kk KK.I.482:0038; Tenore. PL-Kk KK.I.482:0043
!!!NIFC-rismSourceID: 1001140322
!!!NIFC-islandoraID: pl-kk:14397
!!!URL-pdf-islandora: https://repozytorium.nifc.pl/islandora/object/pl-kk%3A14397/datastream/PDF/view
!!!URL-scan: https://polish.musicsources.pl/pl/lokalizacje/galeria/rekopisy/6089 @EN{Scan on Polish Music Sources Website} @PL{Skany w portalu Dziedzictwo Muzyki Polskiej w otwartym dostępie}
!!!ONB-nifc: UWAGA: zakres skanów 0015-0031. Proszę uzupełnić pola !!!SMS dot. partytury i głosów. UWAGA: w zbiorze Msza Isza i Msza 2ga. Części Mszy Iszej: 1. Kyrie, 2. Gloria, 3. Sanctus, 4. Benedictus, 5. Agnus
!!!AIN: 1 alto 1 bass 1 soprn 1 tenor
!!!key:
**kern	**text	**kern	**text	**kern	**text	**kern	**text
*part4	*part4	*part3	*part3	*part2	*part2	*part1	*part1
*staff4	*staff4	*staff3	*staff3	*staff2	*staff2	*staff1	*staff1
*Ibass	*	*Itenor	*	*Ialto	*	*Isoprn	*
*I"Basso.	*	*I"Tenore.	*	*I"Alto.	*	*I"Soprano.	*
*I'B	*	*I'T	*	*I'A	*	*I'S	*
*clefF4	*	*clefC4	*	*clefC3	*	*clefC1	*
*k[]	*	*k[]	*	*k[]	*	*k[]	*
*C:	*	*C:	*	*C:	*	*C:	*
*M2/2	*	*M2/2	*	*M2/2	*	*M2/2	*
*met(c|)	*	*met(c|)	*	*met(c|)	*	*met(c|)	*
=1	=1	=1	=1	=1	=1	=1	=1
*all\right	*	*all\right	*	*all\right	*	*all\right	*
!	!	!LO:TX:a:t=12.	!	!LO:TX:a:t=1.	!	!LO:TX:a:t=5.	!
!LO:TX:a:t=Benedictus.	!	!LO:TX:a:t=Benedictus	!	!LO:TX:a:t=Benedi	!	!LO:TX:a:t=Bened&colon;	!
[y1A	Be-	00r	.	1r	.	00r	.
=2	=2	=2	=2	=2	=2	=2	=2
!LO:N:xstem:cue:vis=4	!	!	!	!	!	!	!
2A\]	.	.	.	2r	.	.	.
*2\right	*	*	*	*2\right	*	*	*
2E\	-ne-	.	.	[2g\	Be-	.	.
=3	=3	=3	=3	=3	=3	=3	=3
1G	-dic-	.	.	2g\]	.	.	.
.	.	.	.	4d\	-ne-	.	.
.	.	.	.	4e\	.	.	.
=4	=4	=4	=4	=4	=4	=4	=4
2D\	-tus	.	.	2fn\	-di-	.	.
2E\	qui	.	.	4e\	.	.	.
.	.	.	.	4d\	.	.	.
=5	=5	=5	=5	=5	=5	=5	=5
1F	ve-	00r	.	2c\	-ctus	1r	.
.	.	.	.	4c\	qui	.	.
.	.	.	.	4d\	.	.	.
=6	=6	=6	=6	=6	=6	=6	=6
2E\	-nit	.	.	2e\	ve-	[y1ee	Be-
2E\	qui	.	.	2g\	.	.	.
=7	=7	=7	=7	=7	=7	=7	=7
!	!	!	!	!	!	!LO:N:xstem:cue:vis=4	!
4C/	ve-	.	.	4g\	.	2ee\]	.
8D/L	.	.	.	8f\L	.	.	.
8E/J	.	.	.	8e\J	.	.	.
*	*	*	*	*	*	*2\right	*
!	!	!	!	!LO:LB:g=original	!	!	!
[2F\	.	.	.	4f\	-nit	2a\	-ne-
.	.	.	.	8e\L	qui	.	.
.	.	.	.	8d\J	.	.	.
=8	=8	=8	=8	=8	=8	=8	=8
2F\]	.	.	.	2a\	ve-	1cc	-dic-
4E\	-nit	.	.	4g\	.	.	.
4D\	qui	.	.	4f\	.	.	.
!LO:LB:g=original	!	!	!	!	!	!	!
=9	=9	=9	=9	=9	=9	=9	=9
2E\	ve-	00r	.	2g\	.	2g\	-tus
2F#X\	.	.	.	[2d\	-nit	2a\	qui
=10	=10	=10	=10	=10	=10	=10	=10
!	!	!	!	!LO:N:xstem:cue	!	!	!
(4G\	-nit	.	.	4d\]	.	1b	ve-
4F\)	.	.	.	4f\	qui	.	.
4E\	qui	.	.	4g\	.	.	.
4D\	.	.	.	4f\	.	.	.
=11	=11	=11	=11	=11	=11	=11	=11
2.E\	ve-	.	.	4e\	ve-	4g\	.
.	.	.	.	2g\	.	8a\L	.
.	.	.	.	.	.	8b\J	.
.	.	.	.	.	.	2cc\	.
4D\	.	.	.	4f\	.	.	.
=12	=12	=12	=12	=12	=12	=12	=12
4E\	-nit	.	.	4g\	.	2.cc\	.
4F\	.	.	.	8f\L	.	.	.
.	.	.	.	8e\J	.	.	.
[2G\	qui	.	.	4d\	.	.	.
.	.	.	.	4c\	.	8b\L	.
.	.	.	.	.	.	8a\J	.
!	!	!	!	!	!	!LO:LB:g=original	!
=13	=13	=13	=13	=13	=13	=13	=13
2G\]	ve-	[y1e	Be-	2B/	-nit	2b\	-nit,
2E\	.	.	.	2r	.	2g\	qui
=14	=14	=14	=14	=14	=14	=14	=14
!	!	!LO:N:xstem:cue:vis=4	!	!LO:TX:a:t=2	!	!	!
4A\	.	2e\]	.	0r	.	2cc\	ve-
8E\L	.	.	.	.	.	.	.
8F\J	.	.	.	.	.	.	.
*	*	*2\right	*	*	*	*	*
[2G\	.	2B\	-ne-	.	.	[2b\	.
=15	=15	=15	=15	=15	=15	=15	=15
2G\]	.	1d	-dic-	.	.	2b\]	.
4F#X\	-nit	.	.	.	.	4a\	.
!LO:TX:b:i:t=Volti Subitto.	!	!	!	!	!	!	!
4E\	qui	.	.	.	.	4g\	.
!LO:PB:g=original	!	!	!	!LO:LB:g=original	!	!	!
=16	=16	=16	=16	=16	=16	=16	=16
4F#X\	ve-	2A\	-tus	2r	.	4a\	.
4D/	.	.	.	.	.	4f#X/	.
4Cn/	.	2B\	qui	4e\	qui	2g#X\	.
4BB/	.	.	.	4d\	.	.	.
=17	=17	=17	=17	=17	=17	=17	=17
4AA/	.	1c	ve-	4c\	ve-	1a	.
4BB/	.	.	.	4d\	.	.	.
4C/	.	.	.	4e\	.	.	.
4D/	.	.	.	4f\	.	.	.
=18	=18	=18	=18	=18	=18	=18	=18
1E	.	2B\	-nit	2e\	-nit	1g#X	nit,
.	.	2B\	in	2g#X\	in	.	.
!	!	!LO:LB:g=original	!	!	!	!	!
=19	=19	=19	=19	=19	=19	=19	=19
2E\	-nit,	4G/	no-	2e\	no-	2r	.
.	.	8A\L	.	.	.	.	.
.	.	8B\J	.	.	.	.	.
4C\	ve-	[2c\	.	4gn\	-mi-	2ee\	qui
8D\L	.	.	.	8f\L	-ne	.	.
8E\J	.	.	.	8e\J	.	.	.
=20	=20	=20	=20	=20	=20	=20	=20
1F	.	2c\]	.	2c\	Do-	4cc\	ve-
.	.	.	.	.	.	8dd\L	.
.	.	.	.	.	.	8ee\J	.
.	.	4B\	mi-	2f\	-mi-	[y2ff\	.
.	.	4A\	-ne	.	.	.	.
=21	=21	=21	=21	=21	=21	=21	=21
!	!	!	!	!	!	!LO:N:xstem:cue	!
0G	.	2B\	no-	2d\	-ni	4ff\]	.
.	.	.	.	.	.	4ee\	.
.	.	[y2c\	.	2g\	qui	4dd\	.
.	.	.	.	.	.	4cc\	.
!	!	!	!	!	!	!LO:LB:g=original	!
=22	=22	=22	=22	=22	=22	=22	=22
!	!	!LO:N:xstem:cue	!	!	!	!	!
.	.	4c\]	.	2d\	ve-	1dd	.
.	.	8B\L	.	.	.	.	.
.	.	8A\J	.	.	.	.	.
.	.	2B\	-mi-	[2g\	.	.	.
=23	=23	=23	=23	=23	=23	=23	=23
2C/	-nit	4c\	-ne	2g\]	-nit	1ee	-nit.
.	.	4G/	in	.	.	.	.
2C/	in	[y2c\	no-	2e\	in	.	.
!	!	!	!	!LO:PB:g=original	!	!	!
=24	=24	=24	=24	=24	=24	=24	=24
!	!	!LO:N:xstem:cue	!	!	!	!	!
2.F\	no-	4c\]	.	2.a\	no-	2cc\	in
.	.	4B\	-mi-	.	.	.	.
.	.	[2A\	-ne	.	.	4.ff\	no-
4E\	-mi-	.	.	4g\	-mi-	.	.
.	.	.	.	.	.	8ff\	-mi-
!LO:LB:g=original	!	!	!	!	!	!	!
=25	=25	=25	=25	=25	=25	=25	=25
1D	-ne	2A\]	.	1f	-ne	2dd\	-ne
.	.	4B\	Do-	.	.	4dd\	Do-
.	.	4A\	.	.	.	4cc\	.
!	!	!LO:LB:g=original	!	!	!	!	!
=26	=26	=26	=26	=26	=26	=26	=26
[y1E	Do-	2G#X/	.	[y1e	Do-	2.cc\	.
.	.	[>2A/	.	.	.	.	.
.	.	.	.	.	.	8b\L	.
.	.	.	.	.	.	8a\J	.
=27	=27	=27	=27	=27	=27	=27	=27
!LO:N:xstem:cue:vis=4	!	!	!	!LO:N:xstem:cue:vis=4	!	!	!
2E\]	.	2A/]	.	2e\]	.	2.b\	.
2E\	-mi-	2G/	-mi-	2e\	-mi-	.	.
.	.	.	.	.	.	4b\	-mi-
=28	=28	=28	=28	=28	=28	=28	=28
!LO:TX:a:t=2	!	!	!	!LO:TX:a:t=2	!	!	!
0AA	-ni.	0A	-ni.	0e	-ni.	0cc#X	-ni.
=29	=29	=29	=29	=29	=29	=29	=29
.	.	.	.	.	.	.	.
!	!	!	!	!LO:LB:g=original	!	!	!
=30||	=30||	=30||	=30||	=30||	=30||	=30||	=30||
*M3/2	*	*M3/2	*	*M3/2	*	*M3/2	*
!	!	!	!	!LO:TX:a:t=Osanna	!	!	!
2E\	O-	2G#X/	O-	2e\	O-	2b\	O-
2A\	-san-	2A\	-san-	2e\	-san-	2cc\	-san-
2G\	-na	2B\	-na	2g\	-na	2dd\	-na
!	!	!	!	!	!	!LO:LB:g=original	!
=31	=31	=31	=31	=31	=31	=31	=31
1.C	in	1.c	in	1.g	in	1.ee	in
=32	=32	=32	=32	=32	=32	=32	=32
!	!	!	!	!LO:TX:a:t=P:problem=brak taktu	!	!	!
2GG/	.	2B\	.	1.ryy	.	1dd	ex-
1AA	-ex-	1A	-ex-	.	.	.	.
.	.	.	.	.	.	2cc\	-cel-
=33	=33	=33	=33	=33	=33	=33	=33
1.E	-cel-	1.G#X	-cel-	2e\	ex-	1.b	-sis,
.	.	.	.	1e\	-cel-	.	.
.	.	.	.	.	.	.	.
=34	=34	=34	=34	=34	=34	=34	=34
2E\	-sis,	2G#X/	-sis	2e\	-sis	2b\	in
2A\	in	2A\	in	2e\	in	2cc\	.
2G\	ex-	2B\	ex-	2g\	ex-	2dd\	ex-
!	!	!LO:LB:g=original	!	!	!	!	!
=35	=35	=35	=35	=35	=35	=35	=35
1.C	-cel-	1.c	-cel-	1.g	-cel-	1.ee	-cel-
!LO:LB:g=original	!	!	!	!	!	!	!
=36	=36	=36	=36	=36	=36	=36	=36
2GG/	.	2B\	.	1.e	.	2dd\	.
1AA	.	1A	.	.	.	1cc	.
.	.	.	.	.	.	.	.
=37	=37	=37	=37	=37	=37	=37	=37
!	!	!	!	!LO:TX:a:t=2	!	!LO:TX:a:t=3.	!
0.E	-sis.	0.G#X	-sis.	0.e	-sis.	0.b	-sis.
=38	=38	=38	=38	=38	=38	=38	=38
.	.	.	.	.	.	.	.
==	==	==	==	==	==	==	==
*-	*-	*-	*-	*-	*-	*-	*-
!!!system-decoration: [(s1,s2,s3,s4)]
!!!RDF**kern: > = above
!!!ENC: Zofia Niedbalska
!!!END: 2021-01-27
!!!ENC: Tomasz Grochalski
!!!END: 2021-01-20
